X:568
T:Hey Ho! My Bonnie Lass
D:Iain MacPhail
Z:Nigel Gatherer scots-l 2004-8-3
L:1/8
M:4/4
K:A
A2 ec efae | c2 AB c2 Bc | A2 ec efae | B2 ce f2 ef  |
A2 ec efae | c2 AB c2 BA | dfBd  ceAc | Bcde  fefg  ||
a2 af efae | c2 AB c2 Bc | a2 af efae | B2 ce f2 ef  |
aAaf  efae | c2 AB c2 BA | dfBd  ceAc | Bcde  f2 e2 |]
